src/assets/bold/lm-logo-lumin-bold.svg

<svg width="24" height="24" viewBox="0 0 24 24" fill="none" xmlns="http://www.w3.org/2000/svg" fill="currentColor">
<path d="M9.04395 16.3105L16.4207 3.61114C16.4562 3.54923 16.475 3.47901 16.475 3.40753C16.475 3.33605 16.4563 3.26582 16.4208 3.20389C16.3852 3.14197 16.3341 3.09053 16.2724 3.05474C16.2108 3.01895 16.1409 3.00007 16.0698 3H11.3135C11.1955 3.00003 11.0794 3.03107 10.977 3.09003C10.8745 3.14899 10.7892 3.23382 10.7294 3.33612L3.09108 16.4919C3.03166 16.5948 3.00025 16.7116 3 16.8306C2.99975 16.9496 3.03066 17.0666 3.08964 17.1698C3.14862 17.273 3.23358 17.3588 3.336 17.4185C3.43843 17.4783 3.55471 17.51 3.67318 17.5104H6.99543L5.56147 19.9814C5.50197 20.0845 5.47056 20.2015 5.4704 20.3207C5.47023 20.4399 5.50132 20.557 5.56054 20.6602C5.61976 20.7635 5.70501 20.8492 5.80772 20.9089C5.91042 20.9685 6.02696 21 6.1456 21H18.1122C18.2541 20.9995 18.3934 20.9616 18.5162 20.8901C18.639 20.8186 18.741 20.716 18.8119 20.5926L20.9456 16.9258C20.9811 16.864 20.9999 16.794 21 16.7227C21.0001 16.6513 20.9816 16.5813 20.9463 16.5194C20.9109 16.4575 20.8601 16.4061 20.7988 16.3701C20.7374 16.3342 20.6678 16.3151 20.5968 16.3146L9.04395 16.3105ZM11.6158 4.2019H14.6926L7.66272 16.3105H4.58183L11.6158 4.2019ZM17.9033 19.8001H7.05425L8.38275 17.5124H19.2237L17.9033 19.8001Z" fill="black"/>
</svg>

<svg xmlns="http://www.w3.org/2000/svg" width="24" height="24" fill="currentColor" viewBox="0 0 24 24">
  <path d="M9.044 16.31 16.42 3.612a.41.41 0 0 0-.149-.556A.404.404 0 0 0 16.07 3h-4.757a.675.675 0 0 0-.584.336L3.091 16.492a.68.68 0 0 0 .582 1.018h3.322l-1.434 2.471A.68.68 0 0 0 6.146 21h11.966a.809.809 0 0 0 .7-.407l2.134-3.667a.409.409 0 0 0-.35-.611L9.045 16.31Zm2.572-12.108h3.077L7.663 16.31H4.582L11.616 4.2ZM17.903 19.8H7.054l1.329-2.288h10.84l-1.32 2.288Z"/>
</svg>
